X: 372
M: 6/8
L: 1/8
K: G
|:\
cdc BcB | !+!A3 D3 |\
|:\
"2 F"c2B A2G | !+!A3 D3 |\
c2B A2G | !+!A3 D3 |\
c2B A2B | c2B A2B |\
c2d dcB | !+!A3 D3 |\
cdc BcB | A3 D3 |\
gag fgf | efe ded |\
cdc BcB | A3 D3 |\

